svg/furkot/furkot.svg

<svg viewBox="0 0 512 512" xmlns="http://www.w3.org/2000/svg"><path d="m471.69 401.237h-73.651l7.26-53.873 22.677 3.062 16.583-123.075-13.568-21.616-4.582-72.075s-2.76-20.295-20.029-22.615l-256.948-34.631c-17.269-2.33-25.313 16.507-25.313 16.507l-23.485 68.285-18.822 17.244-16.593 123.075 19.435 2.621-7.383 54.805 46.423 6.251 7.388-54.794 227.789 30.705-7.383 54.794 39.552 5.33h-109.988v-35.953h-281.052v59.914h512zm-230.466-224.384c-3.016-6.262-7.798-12.882-15.202-16.333-8.064-3.768-11.571-10.322-13.045-16.041 3.107-3.553 5.36-8.438 6.113-14.029 1.649-12.221-4.506-23.142-13.747-24.386-9.247-1.25-18.074 7.654-19.717 19.875-1.024 7.568.947 14.623 4.782 19.206l-1.434 4.879s-6.907-1.413-16.072-.056c.18-3.492-.343-7.148-3.727-5.038 0 0-2.949-2.151-3.589.593 0 0-3.052-2.442-3.589.594 0 0-3.482-1.28-3.871 1.644 0 0-5.995 5.156-7.132 11.238-1.889 1.434-3.733 3.077-5.509 4.951l-17.434-2.35 9.457-70.174 270.976 36.526-9.452 70.174z"/></svg>

<svg viewBox="0 0 512 512" xmlns="http://www.w3.org/2000/svg"><path d="M 471.69 401.237 L 398.039 401.237 L 405.299 347.364 L 427.976 350.426 L 444.559 227.351 L 430.991 205.735 L 426.409 133.66 C 426.409 133.66 423.649 113.365 406.38 111.045 L 149.432 76.414 C 132.163 74.084 124.119 92.921 124.119 92.921 L 100.634 161.206 L 81.812 178.45 L 65.219 301.525 L 84.654 304.146 L 77.271 358.951 L 123.694 365.202 L 131.082 310.408 L 358.871 341.113 L 351.488 395.907 L 391.04 401.237 L 281.052 401.237 L 281.052 365.284 L 0 365.284 L 0 425.198 L 512 425.198 L 471.69 401.237 Z M 241.224 176.853 C 238.208 170.591 233.426 163.971 226.022 160.52 C 217.958 156.752 214.451 150.198 212.977 144.479 C 216.084 140.926 218.337 136.041 219.09 130.45 C 220.739 118.229 214.584 107.308 205.343 106.064 C 196.096 104.814 187.269 113.718 185.626 125.939 C 184.602 133.507 186.573 140.562 190.408 145.145 L 188.974 150.024 C 188.974 150.024 182.067 148.611 172.902 149.968 C 173.082 146.476 172.559 142.82 169.175 144.93 C 169.175 144.93 166.226 142.779 165.586 145.523 C 165.586 145.523 162.534 143.081 161.997 146.117 C 161.997 146.117 158.515 144.837 158.126 147.761 C 158.126 147.761 152.131 152.917 150.994 158.999 C 149.105 160.433 147.261 162.076 145.485 163.95 L 128.051 161.6 L 137.508 91.426 L 408.484 127.952 L 399.032 198.126 L 241.224 176.853 Z"/></svg>
